assets/opnsense/original.svg

<svg viewBox="0 0 24 24" xmlns="http://www.w3.org/2000/svg" fill="#D94F00"><path d="m5.25 0v5.25h13.5v13.5h5.25v-11.25l-7.5-7.5zm13.5 18.75h-13.5v-13.5h-5.25v11.25l7.5 7.5h11.25z"/></svg>

<svg xmlns="http://www.w3.org/2000/svg" fill="#d94f00" viewBox="0 0 24 24"><path d="M5.25 0v5.25h13.5v13.5H24V7.5L16.5 0zm13.5 18.75H5.25V5.25H0V16.5L7.5 24h11.25z"/></svg>
